X: 301
T: Fiddler's Elbow
C: Bert Murray
R: hornpipe
B: Bert Murray's "Bon Accord Collection" 1999 p.30
%
Z: 2011 John Chambers <jc:trillian.mit.edu>
M: C
L: 1/8
K: F
(uc>B) |\
A>BB>c f>cA>F | E>FG>A B2(B>A) | G>Be>d c>BA>G | (3A^GA d>A c2c>B |
A>BB>c f>cA>F | E>FG>A B2(A>B) | c>fe>d (3cBA (3GFE | (3FAc (3fcA F2 ||
(uG>A) |\
B>AB>G E>CE>G | B>AG>A B2(A>B) | c>=Bc>A F>CF>A | c>BA>B c2(A>c) |
d>^cd>e f>ef>d | c>AF>A c2(A>B) | c>fe>d (3cBA (3GFE | (3FAc (3fcA F2 ||

%%sep 2 1 500

